!!!COM: Palestrina, Giovanni Perluigi da
!!!OPR: Missa Memor esto
!!!OMD: Credo
!!!OTL: First Section
**kern	**kern	**kern	**kern	**kern
*Ibass	*Itenor	*Itenor	*Icalto	*Icant
!Bassus	!Tenor 2	!Tenor 1	!Altus	!Cantus
*clefF4	*clefGv2	*clefGv2	*clefG2	*clefG2
*k[b-]	*k[b-]	*k[b-]	*k[b-]	*k[b-]
*G:dor	*G:dor	*G:dor	*G:dor	*G:dor
*M4/2	*M4/2	*M4/2	*M4/2	*M4/2
=1	=1	=1	=1	=1
0d	0f#	0r	0a	0dd
=2	=2	=2	=2	=2
1G	1g	0r	1b-	1dd
1A	2e	.	2.a	1cc
.	[2a	.	.	.
.	.	.	4g	.
=3	=3	=3	=3	=3
2.d	2a]	0r	4f	2.ff
.	.	.	4d	.
.	2d	.	2a	.
4c	.	.	.	4ee
4B-	2.f	.	2.b-	4dd
4A	.	.	.	4cc
[2B-	.	.	.	[2dd
.	4e	.	8a	.
.	.	.	8g	.
=4	=4	=4	=4	=4
2B-]	2.d	1r	2f	2dd]
2F	.	.	2a	2a
.	4c	.	.	.
1G	4B-	[1d	1g	1b-
.	4A	.	.	.
.	2G	.	.	.
=5	=5	=5	=5	=5
0D	2A	1d]	2f	1a
.	2a	.	2f	.
.	1f	1d	2a	2r
.	.	.	2b-	2ff
=6	=6	=6	=6	=6
0r	1g	1c	1.cc	2ff
.	.	.	.	2ee
.	1a	2.f	.	2ff
.	.	.	2f	2cc
.	.	4e	.	.
=7	=7	=7	=7	=7
0r	2.f	4d	0a	2.dd
.	.	4c#	.	.
.	.	1d	.	.
.	4e	.	.	4ee
.	2d	.	.	2ff
.	2c#	2A	.	[2ee
=8	=8	=8	=8	=8
0r	1d	1B-	2.f	4ee]
.	.	.	.	4dd
.	.	.	.	1dd
.	.	.	4g	.
.	1e	1A	1a	.
.	.	.	.	2cc#
=9	=9	=9	=9	=9
2r	2d	2d	1f	1dd
1B-	1f	1d	.	.
.	.	.	1r	1r
2A	2f	2c	.	.
=10	=10	=10	=10	=10
2G	2e-	2B-	0r	0r
2F#	2d	2A	.	.
1G	2e-	1B-	.	.
.	[2d	.	.	.
=11	=11	=11	=11	=11
2F	2d]	2A	0r	1r
2E-	2c	2G	.	.
1D	2.d	2A	.	[1ff
.	.	[2d	.	.
.	4c	.	.	.
=12	=12	=12	=12	=12
0r	4B-	2d]	1.b-	2ff]
.	4A	.	.	.
.	2G	2e	.	2ee
.	1F	1f	.	2dd
.	.	.	2a	2cc
=13	=13	=13	=13	=13
0r	0r	1B-	2g	2.dd
.	.	.	2f	.
.	.	.	.	4cc
.	.	2e-	2g	4b-
.	.	.	.	4g
.	.	2c	[2g	[2cc
=14	=14	=14	=14	=14
0r	0r	1e-	4g]	4cc]
.	.	.	4g	4b-
.	.	.	1g	4b-
.	.	.	.	8a
.	.	.	.	8g
.	.	1d	.	2a
.	.	.	2f#	2a
=15	=15	=15	=15	=15
2.G	2.d	0r	1g	0b
4G	4d	.	.	.
2G	2d	.	2.g	.
2G	2d	.	.	.
.	.	.	4g	.
=16	=16	=16	=16	=16
2.c	2.e	0r	2g	0r
.	.	.	2g	.
4c	4e	.	.	.
2c	2e	.	2.a	.
[2d	[2f#	.	.	.
.	.	.	4a	.
=17	=17	=17	=17	=17
2d]	2f#]	0r	2a	2.dd
2G	2.g	.	1b-	.
.	.	.	.	4dd
1d	.	.	.	2dd
.	8f#	.	.	.
.	8e	.	.	.
.	2f#	.	2a	2dd
=18	=18	=18	=18	=18
1c	1g	2r	[0cc	2.ee
.	.	1c	.	.
.	.	.	.	4ee
1r	2g	.	.	2ee
.	[2a	2F	.	[2ff
=19	=19	=19	=19	=19
0r	2a]	1c	1cc]	2ff]
.	2g	.	.	2ee
.	1f	1d	[1a	1dd
=20	=20	=20	=20	=20
2r	1e	2A	1a]	0cc#
2.A	.	2.e	.	.
.	1r	.	2r	.
4A	.	4e	.	.
2A	.	2e	[2a	.
=21	=21	=21	=21	=21
1d	1r	1f#	4a]	2r
.	.	.	4a	.
.	.	.	2a	2.dd
1G	2r	2.g	1b	.
.	.	.	.	4dd
.	[2g	.	.	2dd
.	.	4f	.	.
=22	=22	=22	=22	=22
1c	4g]	4e	2cc	2ee
.	4g	4d	.	.
.	2g	4c	2cc	2ee
.	.	4B-	.	.
2F	2f	2A	4cc	2ff
.	.	.	4b-	.
[2F	2f	[2c	4a	2cc
.	.	.	4g	.
=23	=23	=23	=23	=23
2F]	2f	2c]	2a	1.dd
2G	2d	2B-	1g	.
1D	2.d	2A	.	.
.	.	2A	2f#	2dd
.	4d	.	.	.
=24	=24	=24	=24	=24
2r	2B-	1G	2g	0dd
2G	2.d	.	2b-	.
2G	.	2r	2b-	.
.	4c	.	.	.
[2G	4B-	2d	[2b-	.
.	4A	.	.	.
=25	=25	=25	=25	=25
2G]	2G	2d	2b-]	0r
2F	2A	1d	2a	.
1E-	2B-	.	[1g	.
.	2c	2c	.	.
=26	=26	=26	=26	=26
0D	2.d	2B-	2g]	2r
.	.	4A	2f	2dd
.	4e	4G	.	.
.	1f	2.A	2r	2dd
.	.	.	2a	[2dd
.	.	4G	.	.
=27	=27	=27	=27	=27
0r	1f	1F	2a	4dd]
.	.	.	.	4cc
.	.	.	2.a	2cc
.	2r	1G	.	2.b-
.	.	.	4g	.
.	2d	.	2g	.
.	.	.	.	4b-
=28	=28	=28	=28	=28
0r	2d	1r	2.f	0a
.	2.d	.	.	.
.	.	.	4f	.
.	.	1A	2e	.
.	4c	.	.	.
.	2c	.	2a	.
=29	=29	=29	=29	=29
2r	2.B-	1d	2a	0r
2d	.	.	2g	.
.	4B-	.	.	.
2d	1A	1e	1a	.
2c#	.	.	.	.
=30	=30	=30	=30	=30
1d	2r	1f	[0a	1dd
.	2d	.	.	.
1A	2d	1e	.	2ee
.	2c#	.	.	2ee
=31	=31	=31	=31	=31
0r	1d	2r	1a]	1ff
.	.	2d	.	.
.	2A	2d	2r	1ee
.	2A	2c#	2a	.
=32	=32	=32	=32	=32
1r	2f	2d	2a	2r
.	2f	2d	2b-	2dd
2r	2.e	1A	2.a	2dd
2A	.	.	.	2cc#
.	4e	.	4a	.
=33	=33	=33	=33	=33
2B-	1d	0r	2f	2dd
2G	.	.	1g	2dd
2.d	2r	.	.	1a
.	[2d	.	2f#	.
4d	.	.	.	.
=34	=34	=34	=34	=34
1G	2d]	2r	1g	2.b-
.	2e-	1g	.	.
.	.	.	.	4cc
1r	1d	.	1a	2dd
.	.	2f#	.	[2dd
=35	=35	=35	=35	=35
2r	2.G	1g	1.b-	2dd]
1G	.	.	.	2ee-
.	4A	.	.	.
.	4B-	2G	.	1dd
.	4c	.	.	.
2F#	4d	2A	2a	.
.	8c	.	.	.
.	8d	.	.	.
=36	=36	=36	=36	=36
1G	2e-	2.B-	2g	2b-
.	2d	.	1b-	2g
.	.	4c	.	.
2D	2d	1d	.	2g
2D	[2d	.	[2a	2f#
=37	=37	=37	=37	=37
2E-	2d]	1G	4a]	1g
.	.	.	4g	.
2E-	2c	.	1g	.
1D	1d	1A	.	[1dd
.	.	.	2f#	.
=38	=38	=38	=38	=38
2G	1d	2B-	2.g	0dd]
1G	.	1B-	.	.
.	.	.	8f	.
.	.	.	8e	.
.	2r	.	1d	.
2F#	[2d	2A	.	.
=39	=39	=39	=39	=39
2G	2d]	2B-	0r	0r
2A	2c	2A	.	.
[1B-	2d	1G	.	.
.	2e	.	.	.
=40	=40	=40	=40	=40
1B-]	2f	2d	1r	2r
.	8d	1f	.	1dd
.	8e	.	.	.
.	8f	.	.	.
.	8g	.	.	.
1A	1a	.	2r	.
.	.	2e	[2a	2cc
=41	=41	=41	=41	=41
0r	0r	2f	2a]	2dd
.	.	2e	2g	2ee
.	.	1d	2a	1ff
.	.	.	2b-	.
=42	=42	=42	=42	=42
2r	1r	4A	2.cc	2.ee
.	.	4B-	.	.
1A	.	4c	.	.
.	.	4d	4b-	4dd
.	2r	2e	1a	4cc
.	.	.	.	4b-
2F	[2d	4f	.	2a
.	.	4e	.	.
=43	=43	=43	=43	=43
2G	2d]	4d	2g	4b-
.	.	4e	.	4g
2A	2c	2f	1f	2cc
2B-	2d	1g	.	2b-
2c	2e	.	[2e	4a
.	.	.	.	4g
=44	=44	=44	=44	=44
1d	2f	2r	4e]	2b-
.	.	.	4d	.
.	2f	1a	1d	2a
1A	1e	.	.	2r
.	.	2e	2c#	[2a
=45	=45	=45	=45	=45
0r	1d	4f	2r	2a]
.	.	4e	.	.
.	.	4d	1d	2f
.	.	4c	.	.
.	1r	2B-	.	2g
.	.	2A	2c	2a
=46	=46	=46	=46	=46
1r	2r	4G	2d	1b-
.	.	4A	.	.
.	2G	4B-	2e	.
.	.	4c	.	.
[1D	2F	[1d	[1f	2.a
.	[2A	.	.	.
.	.	.	.	4g
=47	=47	=47	=47	=47
2D]	4A]	1d]	2f]	2f
.	4A	.	.	.
2BB-	2B-	.	4e-	1g
.	.	.	4d	.
2C	2A	2r	2e-	.
2D	2A	2d	2d	2f#
=48	=48	=48	=48	=48
1E-	0G	2B-	2r	[0g
.	.	2.e-	2B-	.
2C	.	.	4c	.
.	.	4d	4d	.
2C	.	[2c	4e-	.
.	.	.	4c	.
=49	=49	=49	=49	=49
[0G	2r	2c]	1d	1g]
.	2d	4B	.	.
.	.	4A	.	.
.	1d	2.B	1g	2r
.	.	.	.	2dd
.	.	4c	.	.
=50	=50	=50	=50	=50
1G]	1B-	1d	1r	1dd
1r	1e-	1r	2r	2b-
.	.	.	2g	2b-
=51	=51	=51	=51	=51
0r	2c	1r	1g	4cc
.	.	.	.	4b-
.	2e-	.	.	4b-
.	.	.	.	8a
.	.	.	.	8g
.	1d	2r	1f	2a
.	.	2d	.	2a
=52	=52	=52	=52	=52
2r	1G	1d	1b-	4g
.	.	.	.	4a
2G	.	.	.	4b-
.	.	.	.	4cc
1G	1r	1B-	2g	2dd
.	.	.	2b-	2b-
=53	=53	=53	=53	=53
1F	1r	1f	1a	2cc
.	.	.	.	2cc
1B-	2r	2d	2f	1dd
.	2d	2f	[2b-	.
=54	=54	=54	=54	=54
2G	1d	4g	2b-]	1dd
.	.	4f	.	.
2B-	.	4e	2g	.
.	.	4d	.	.
1A	1c	1e	1a	2r
.	.	.	.	[2a
=55	=55	=55	=55	=55
0D	1f	0d	2f	2a]
.	.	.	2d	2.ff
.	2d	.	[1a	.
.	.	.	.	4ee
.	2f	.	.	[2dd
=56	=56	=56	=56	=56
1r	1e	1A	1a]	2dd]
.	.	.	.	2cc#
1D	[1d	1A	1f	1dd
=57	=57	=57	=57	=57
1D	1d]	1F	1a	2r
.	.	.	.	2dd
1BB-	2r	1f	2b-	1dd
.	2d	.	[2B-	.
=58	=58	=58	=58	=58
0B-	1d	2.f	4B-]	2b-
.	.	.	4c	.
.	.	.	4d	2.ff
.	.	4e	4e	.
.	2B-	4d	2.f	.
.	.	4c	.	4ee
.	[2f	2B-	.	2dd
.	.	.	4g	.
=59	=59	=59	=59	=59
0F	4f]	2A	2a	2cc
.	4e	.	.	.
.	2d	2B-	2f	1b-
.	1c	1c	1f	.
.	.	.	.	2a
=60	=60	=60	=60	=60
1BB-	1B-	1d	1f	1b-
1r	[1d	1r	1r	1r
=61	=61	=61	=61	=61
1D	1d]	1f#	2r	1a
.	.	.	2d	.
2D	2d	2f#	2a	2dd
2D	2d	2f#	2a	2dd
=62	=62	=62	=62	=62
1G	1d	1g	1b	1dd
1C	1c	1g	1cc	1ee
=63	=63	=63	=63	=63
1F	1c	1f	1a	1.ff
1F	1A	1a	1f	.
.	.	.	.	2cc
=64	=64	=64	=64	=64
1.D	1.d	2.a	2.f	2.ff
.	.	4g	4g	4ee
.	.	2f	2a	2dd
2A	2e	[2e	2a	2cc#
=65	=65	=65	=65	=65
1D	1f	2e]	1a	1dd
.	.	1d	.	.
1A	1e	.	1a	1ee
.	.	2c#	.	.
=66	=66	=66	=66	=66
0D	2d	2d	2a	2ff
.	1a	1d	1f	1dd
.	2a	2d	2f	2dd
=67	=67	=67	=67	=67
0r	1g	1B-	1d	1dd
.	1a	1A	1e	1cc
=68	=68	=68	=68	=68
0r	1d	1G	1g	1b
.	1e	1c	1g	1cc
=69	=69	=69	=69	=69
1r	1f	1F	1cc	1a
1F	1c	1A	1cc	2.ff
.	.	.	.	4ee
=70	=70	=70	=70	=70
1BB-	1f	1B-	1b-	4dd
.	.	.	.	4cc
.	.	.	.	2dd
1F	1f	2c	1a	2cc
.	.	[2d	.	2a
=71	=71	=71	=71	=71
0G	0d	4d]	2g	4b-
.	.	4c	.	4a
.	.	4B-	2.b-	4g
.	.	4A	.	4f#
.	.	1B-	.	1g
.	.	.	4a	.
.	.	.	[2g	.
=72	=72	=72	=72	=72
0D	0d	0A	2g]	0a
.	.	.	4f#	.
.	.	.	4e	.
.	.	.	1f#	.
=73	=73	=73	=73	=73
0G	0d	0G	0g	0b
*-	*-	*-	*-	*-
!!!CDT: 1525/^1526/-1594/2/2
!!!OCY: Italia
!!!AGN: Mass (Parody)
!!!AST: renaissance, vocal
!!!ASW: Motet 1572 (Palestrina)
!!!PWK: Masses, Book 8
!!!RNB: Cadence finals: A,D
!!!YOR: Le Opere Complete, v. 24, p. 86
!!!YOO: Rome, Italy: Fratelli Scalera
!!!END: 1992//
!!!EED: John Miller
!!!YEC: Copyright 2000, John Miller
!!!YEN: United States of America
!!!YEM: Rights to all derivative electronic formats reserved.
!!!YEM: Refer to licensing agreement for further details.
!!!YEM: This file must be accompanied by the licensing agreement.
!!!YEM: A copy of the licensing agreement may be found at http://www.music-cog.ohio-state.edu/HumdrumDatabases/Palestrina/license.txt
!!!EMD: converted to Humdrum by Bret Aarden
